packages/astro-components-stencil/src/icons/donut-large.svg

<svg xmlns="http://www.w3.org/2000/svg" viewBox="0 0 24 24"><g xmlns="http://www.w3.org/2000/svg" id="donut-large" fill-rule="nonzero">
            <path d="M14.07 5.32C16.26 6 18 7.74 18.68 9.93c.19.63.76 1.07 1.41 1.07h.04c1 0 1.72-.96 1.43-1.91-.97-3.18-3.48-5.69-6.66-6.66-.94-.29-1.9.43-1.9 1.43v.04c0 .66.44 1.23 1.07 1.42zm4.61 8.75a7.014 7.014 0 01-4.61 4.61c-.63.19-1.07.76-1.07 1.41v.04c0 1 .96 1.72 1.91 1.43 3.18-.97 5.69-3.48 6.66-6.66.29-.95-.43-1.91-1.42-1.91h-.05c-.66.01-1.23.45-1.42 1.08zM11 20.11c0-.67-.45-1.24-1.09-1.44C7.07 17.78 5 15.13 5 12s2.07-5.78 4.91-6.67c.64-.2 1.09-.77 1.09-1.44v-.01c0-1-.97-1.74-1.93-1.44C4.98 3.69 2 7.5 2 12c0 4.5 2.98 8.31 7.07 9.56.96.3 1.93-.44 1.93-1.45z"/>
        </g></svg>

<svg width="24" height="24" viewBox="0 0 24 24" fill="none" xmlns="http://www.w3.org/2000/svg">
<path fill-rule="evenodd" clip-rule="evenodd" d="M14.07 5.32C16.26 6 18 7.74 18.68 9.93C18.87 10.56 19.44 11 20.09 11H20.13C21.13 11 21.85 10.04 21.56 9.09C20.59 5.91 18.08 3.4 14.9 2.43C13.96 2.14 13 2.86 13 3.86V3.9C13 4.56 13.44 5.13 14.07 5.32ZM18.68 14.07C18 16.27 16.26 18 14.07 18.68C13.44 18.87 13 19.44 13 20.09V20.13C13 21.13 13.96 21.85 14.91 21.56C18.09 20.59 20.6 18.08 21.57 14.9C21.86 13.95 21.14 12.99 20.15 12.99H20.1C19.44 13 18.87 13.44 18.68 14.07ZM9.91 18.67C10.55 18.87 11 19.44 11 20.11C11 21.12 10.03 21.86 9.07 21.56C4.98 20.31 2 16.5 2 12C2 7.5 4.98 3.69 9.07 2.44C10.03 2.14 11 2.88 11 3.88V3.89C11 4.56 10.55 5.13 9.91 5.33C7.07 6.22 5 8.87 5 12C5 15.13 7.07 17.78 9.91 18.67Z" fill="black"/>
</svg>
